!!!OTL: De' Fielzer Eisebunn (3-7), S. 7
!!!id: K1141
**kern
*clefG2
*k[f#]
*G:
{8d
=1
8.g
16d
8d
8d
=2
8e
16e
16e
4d
=3
16d
16d
16d
16d
8e
8f#
=4
4g}
8r
=5
{8d
=6
8.g
16d
8d
16d
16d
=7
8e
16e
8e
8.d
=8
16d
16d
16d
16d
8e
8f#
=9
4g}
8r
=10
{8a
=11
8.a
16b
8.a
16b
=12
8.a
16b
4a
=13
16a
16b
16a
16g
8f#
8e
=14
8.e
16d
8d}
=15
{8d
=16
8.g
16f#
8.g
16a
=17
16b
16b
16b
16b
4b
=18
16a
16a
16a
16a
8a
8a
=19
4g}
8r
=20
{8g
=21
8.cc
16cc
8cc
8a
=22
8.b
16b
8b
8b
=23
8a
8a
8.a
16a
=24
8g
8b
8.dd}
=25
{16b
=26
8.cc
16cc
8cc
8a
=27
8.b
16b
8b
8b
=28
8a
8a
8a
8a
=29
4g}
8r
==
*-
!!!minrhy: 16
!!!meters: 2/4 ]  ZZ[6
!!!cut: De' Fielzer Eisebunn (3-7), S. 7
!!!reg: Luxemburg
!!!trd: KINTZELE, Guillaume: An der Ucht, Bd. 3, Luxemburg 1928
!!!rhy1: X_  X_.XX_X_  X_XXX__  XXXXX_X_  X__0_
!!!rhy2: X_  X_.XX_XX  X_XX_X_.  XXXXX_X_  X__0_
!!!key: K1141  16  G 2/4 ]  ZZ[6
!!!mod: HEPTATONIK IONISCH]  AMBITUS[8
!!!kad: 11-5151
!!!akz: 1-6-51_1-6-51_222-6_1321_4321_4321_
!!!fot: 'a__aw_b__c__cw_cw_
!!!for: 'a__b__c__d__e__f__
!!!fok: '~a_~a_\__^a_~a_\__
!! PHRAS[AUFTAKTIG]
!!!fkt: cherz-, Spottlied
!!!bem: in der Quelle mit einer 2. Stimme versehen
!! KINTZELE
!! PR[35] 2K[3] 2G[12] 3K[3] 3G[5] 4A[5] 4Ü[0] 5A[2] 6K[0] 6G[0]
!! 7K[0] 7G[0] 8A[2] MEHR[0] SI[30] ABS[66] SR[15] SP[15]
!! ST[22] 2k[6] 2g[23] 3k[2] 3g[2] 4d[0] 4ü[0] 5d[0] 6k[0] 6g[0]
!! 7k[0] 7g[0] 8d[3] mehr[0] si[35] dm[-5] sr[29] sp[6]
!! 1F[9] 2F[53] 3F[29] 4F[0] LF[0] 2P[9] 3P[0] 4P[0] TRI[0] DF[4] AB[68]
!! TF[0] U3K[0] U3[0] U4[0] U4Ü[0] U5[0] U6K[0] U6[0] U7K[0] U7[0]
!! N1[9] N2K[0] N2[1] N3K[0] N3[9] N4[10] N4Ü[0] N5[30] N6K[0] N6[16]
!!!n7k: 0] N7[6] O1[18] O2K[0] O2[0] O3K[0] O3[0] HÖ[0
